X:2
T:Jefferson Road
R:reel
C: 2001 Larry Unger
M:C
Q:1/4=200
K:G
"G"B,DDE D2 DE|GEDG EDEG|"C"AGAB AGED|"C"EDEG "D"EDB,A,|
"G"B,DDE D2 DE|GEDG EDEG|"C"AGAB AGED|1"D" EDEF "G"G2z2:|2"D"EDEF "G"G2zA||
"G"B2d2 BAGA|BABd BABd|"C"edBe dBed|"C"BedB "D"edBA|
"G"B2d2 BAGA|BABd BAGB|"C"AGAB AGED|1"D"EDEF "G"G2zA:|2"D"EDEF "G"G2 z2|
